logo.svg

<svg xmlns="http://www.w3.org/2000/svg" width="285" height="56" fill="none" viewBox="0 0 2712 542"><g clip-path="url(#a)"><path fill="#ffff0a" d="M141 146.328c0 85.993.128 135.075.321 138.143 1.057 15.536 4.263 31.435 9.008 44.497 11.188 30.71 30.455 55.812 56.101 72.997 15.42 10.358 32.218 17.516 49.882 21.177 9.521 2.012 18.69 2.903 29.589 2.903 20.004 0 37.187-3.2 54.499-10.193 32.506-13.095 57.992-36.944 73.989-69.302 8.944-18.043 13.881-35.955 15.965-57.791.769-7.884.769-25.036 0-32.656-1.603-16.328-4.616-29.588-9.714-42.881-13.977-36.515-39.078-64.717-72.066-81.012-18.369-9.071-37.315-13.689-58.377-14.217-8.655-.231-14.298.165-21.607 1.418-21.863 3.761-39.591 12.634-51.709 25.861l-3.11 3.397V13H141zm153.781 47.268c8.015 1.088 14.875 3.232 21.864 6.795 7.726 3.925 13.817 8.51 19.908 15.008 11.06 11.809 18.112 26.85 20.741 44.333.802 5.376.802 19.692 0 25.069-.769 5.178-1.987 10.324-3.462 14.777-8.976 26.85-30.199 46.081-56.229 50.963-3.302.627-4.969.726-11.702.726-6.796-.033-8.367-.132-11.701-.759-14.105-2.771-26.351-9.236-36.802-19.495-9.585-9.4-17.119-22.859-20.581-36.811-4.072-16.361-3.398-33.943 1.923-48.885 1.667-4.684 6.187-13.92 8.656-17.746 10.771-16.559 27.057-28.698 44.079-32.821 6.957-1.649 16.061-2.111 23.306-1.154M591.252 118.092c-14.201 1.187-25.838 3.529-37.379 7.587-19.331 6.729-35.809 16.789-51.036 31.072-17.055 16.031-30.872 38.296-38.694 62.408-5.835 17.978-8.335 36.054-7.918 57.395.545 28.071 5.706 50.732 16.574 72.7 18.561 37.505 50.747 63.003 91.845 72.733 19.524 4.618 41.675 5.41 57.736 2.013 25.743-5.443 50.171-18.571 74.471-40.012 2.949-2.573 3.751-3.133 4.039-2.804.224.231 6.54 9.236 14.073 19.99l13.689 19.527h17.6V129.439h-17.504l-14.073 17.317-14.041 17.285-1.635-1.485c-10.034-9.104-16.093-14.019-24.557-19.758-19.266-13.161-39.11-21.177-59.627-24.112-3.559-.495-19.684-.891-23.563-.594m20.678 75.834c18.85 3.496 36.449 15.998 48.118 34.14 3.238 4.98 7.342 13.755 9.233 19.626 2.725 8.444 3.879 15.8 3.879 24.574 0 12.436-2.565 23.486-8.175 35.13-4.456 9.302-9.457 16.394-16.413 23.255-11.541 11.446-24.877 18.34-39.367 20.319-4.649.659-15.196.461-20.197-.363-15.516-2.507-28.371-9.005-38.469-19.429-11.926-12.336-19.139-29.852-20.645-50.204-2.052-27.543 5.353-51.787 20.645-67.62 11.124-11.479 25.71-18.241 43.278-20.055 3.27-.33 15.195.066 18.113.627M1582.8 118.092c-14.2 1.187-25.84 3.529-37.38 7.587-19.33 6.729-35.81 16.789-51.03 31.072-17.06 16.031-30.88 38.296-38.7 62.408-5.83 17.978-8.33 36.054-7.92 57.395.55 28.071 5.71 50.732 16.58 72.7 18.56 37.505 50.74 63.003 91.84 72.733 19.53 4.618 41.68 5.41 57.74 2.013 25.74-5.443 50.17-18.571 74.47-40.012 2.95-2.573 3.75-3.133 4.04-2.804.22.231 6.54 9.236 14.07 19.99l13.69 19.527h17.6V129.439h-17.5l-14.08 17.317-14.04 17.285-1.63-1.485c-10.04-9.104-16.1-14.019-24.56-19.758-19.27-13.161-39.11-21.177-59.63-24.112-3.55-.495-19.68-.891-23.56-.594m20.68 75.834c18.85 3.496 36.45 15.998 48.12 34.14 3.24 4.98 7.34 13.755 9.23 19.626 2.72 8.444 3.88 15.8 3.88 24.574 0 12.436-2.57 23.486-8.18 35.13-4.45 9.302-9.45 16.394-16.41 23.255-11.54 11.446-24.88 18.34-39.37 20.319-4.64.659-15.19.461-20.19-.363-15.52-2.507-28.37-9.005-38.47-19.429-11.93-12.336-19.14-29.852-20.65-50.204-2.05-27.543 5.36-51.787 20.65-67.62 11.12-11.479 25.71-18.241 43.28-20.055 3.27-.33 15.19.066 18.11.627"/><path fill="#fff" d="M2406.43 135.046c-15.64 9.401-28.66 17.252-28.92 17.483-.41.363-.48 3.397-.48 22.463v22.067h-26.28v47.499h26.22l.16 59.935c.19 67.884.29 71.645 2.47 82.959 1.51 7.652 3.75 13.887 6.92 18.999 2.92 4.651 9.49 10.226 15.71 13.26 9.04 4.454 17.63 6.466 29.14 6.828 14.56.462 29.59-1.913 42.64-6.729 3.88-1.418 4.97-1.979 4.97-2.506 0-.99-4.81-45.191-4.94-45.323-.06-.066-1.41.33-2.95.891-3.52 1.286-9.65 3.035-13.27 3.826-4.04.891-10.13.792-12.63-.132-5.68-2.144-8.75-6.168-9.52-12.435-.29-2.111-.42-19.857-.52-61.254l-.12-58.319 19.65-.066 19.65-.099v-47.169l-19.62-.099-19.65-.066-.07-39.549-.09-39.55z"/><path fill="#ffff0a" d="M940.683 118.587c-23.627 1.286-49.754 11.446-72.707 28.301-5.354 3.926-12.279 9.632-16.382 13.425-1.731 1.617-3.398 3.101-3.687 3.332-.448.33-2.436-1.946-14.874-17.087l-14.362-17.449h-17.6v400.114h73.092l.064-63.958.096-63.926 5.129 2.935c20.613 11.875 39.207 19.264 54.691 21.771 4.007.626 5.867.725 13.913.725 6.636 0 10.836-.165 14.683-.593 30.294-3.266 56.361-14.217 78.441-33.019 4.62-3.925 14.21-13.986 18.02-18.901 12.76-16.492 22.47-36.811 27.47-57.592 3.4-14.052 4.94-27.609 4.94-44.069 0-13.92-.9-23.782-3.33-36.053-6.41-32.59-23.18-62.508-46.49-82.893-21.8-19.098-48.148-30.775-77.481-34.272-3.558-.428-17.439-1.253-18.497-1.088-.16 0-2.468.165-5.129.297m17.792 75.339c12.246 2.012 23.338 6.828 32.731 14.216 3.975 3.134 10.384 9.962 13.174 13.986 4.17 6.037 7.92 13.557 10.13 20.286 5.77 17.384 6 39.55.64 56.9-6.09 19.66-18.494 35.13-35.293 44.003-9.841 5.179-19.459 7.686-30.871 8.016-9.714.296-16.799-.726-25.39-3.695-12.278-4.222-23.082-11.842-31.417-22.1-7.149-8.774-13.015-21.276-15.58-33.151-1.442-6.762-1.923-11.643-1.923-20.451.032-15.47 2.404-26.685 8.303-39.087 5.738-12.007 14.522-22.068 25.261-28.929 8.143-5.211 18.754-9.005 29.013-10.324 4.616-.627 16.638-.429 21.222.33M1271.52 118.587c-23.63 1.286-49.75 11.446-72.71 28.301-5.35 3.926-12.28 9.632-16.38 13.425-1.73 1.617-3.4 3.101-3.69 3.332-.44.33-2.43-1.946-14.87-17.087l-14.36-17.449h-17.6v400.114H1205l.06-63.958.1-63.926 5.13 2.935c20.61 11.875 39.21 19.264 54.69 21.771 4.01.626 5.87.725 13.91.725 6.64 0 10.84-.165 14.69-.593 30.29-3.266 56.35-14.217 78.44-33.019 4.62-3.925 14.2-13.986 18.02-18.901 12.76-16.492 22.47-36.811 27.47-57.592 3.4-14.052 4.94-27.609 4.94-44.069 0-13.92-.9-23.782-3.34-36.053-6.41-32.59-23.17-62.508-46.48-82.893-21.8-19.098-48.15-30.775-77.48-34.272-3.56-.428-17.44-1.253-18.5-1.088-.16 0-2.47.165-5.13.297m17.79 75.339c12.25 2.012 23.34 6.828 32.73 14.216 3.98 3.134 10.39 9.962 13.18 13.986 4.17 6.037 7.92 13.557 10.13 20.286 5.77 17.384 5.99 39.55.64 56.9-6.09 19.66-18.5 35.13-35.3 44.003-9.84 5.179-19.45 7.686-30.87 8.016-9.71.296-16.8-.726-25.39-3.695-12.28-4.222-23.08-11.842-31.41-22.1-7.15-8.774-13.02-21.276-15.58-33.151-1.45-6.762-1.93-11.643-1.93-20.451.03-15.47 2.41-26.685 8.31-39.087 5.73-12.007 14.52-22.068 25.26-28.929 8.14-5.211 18.75-9.005 29.01-10.324 4.62-.627 16.64-.429 21.22.33M1893.92 124.029c-.61.066-2.69.297-4.65.495-7.31.759-14.87 2.474-22.28 5.08-12.21 4.321-23.43 10.588-33.79 18.868l-3.49 2.803-.7-.791c-.39-.396-4.78-5.41-9.75-11.083l-9.04-10.292h-17.6v291.592h72.45l.06-95.592.1-95.559.87-3.2c3.2-11.94 11.34-21.506 21.86-25.695 7.4-2.936 16.93-3.134 24.49-.495 12.09 4.255 20.68 14.052 23.88 27.213l.68 2.837.09 95.229.1 95.262h72.45v-94.47c0-103.245-.1-96.978 1.83-102.75 4.23-12.766 14.58-22.134 27.15-24.608 3.37-.659 10.13-.659 13.53 0 8.82 1.716 17.12 7.125 22.57 14.646 1.63 2.276 4.2 7.455 5.1 10.258 1.89 6.004 1.76-1.88 1.85 101.992l.1 94.932h72.16l-.12-96.911c-.13-104.169-.04-98.165-1.67-108.094-3.91-23.453-16.54-47.07-33.76-62.936-14.68-13.524-32.25-22.76-50.71-26.62-8.53-1.748-12.15-2.111-22.12-2.111-10.04-.033-14.33.396-22.77 2.111-18.75 3.86-36.51 14.547-47.44 28.533-1.15 1.484-2.21 2.705-2.34 2.738-.16.066-1.6-1.518-3.27-3.464-14.01-16.691-31.67-25.926-55.94-29.291-3.46-.495-17.38-.924-19.88-.627"/><path fill="#fff" d="M2486.58 197.29c-.07.165 4.23 11.38 9.58 25.003 14.23 36.317 37.67 96.351 59.05 151.14l18.82 48.258h52l.67-1.749c.35-.923 8.78-22.859 18.75-48.719 16.67-43.31 27.48-71.282 56.07-145.466 5.84-15.141 10.68-27.807 10.77-28.137.13-.528-1.37-.561-29.46-.495l-29.62.099-8.91 24.739c-4.9 13.59-14.36 39.814-21.03 58.22-11.38 31.369-14.59 40.803-20.77 61.089-1.38 4.486-2.6 8.18-2.73 8.18s-.74-1.682-1.34-3.727c-8.05-26.487-11.58-36.944-24.82-73.789-7.56-21.143-16.64-46.443-20.1-56.24-3.49-9.797-6.47-18.01-6.67-18.241-.22-.297-6.66-.396-30.23-.396-16.44 0-29.97.099-30.03.231M2259.16 351.893c-14.4 2.804-24.56 13.557-27.19 28.731-.67 3.892-.67 11.281 0 15.173 3.08 17.779 16.35 29.192 33.98 29.192 21.19 0 35.65-16.097 34.66-38.593-.45-10.522-3.75-18.868-9.94-25.267-4.01-4.123-9.01-7.026-14.87-8.609-2.67-.726-3.95-.858-8.72-.957-3.79-.066-6.35.033-7.92.33"/><ellipse cx="51.5" cy="62" fill="#ffff0a" rx="50.5" ry="49"/><path fill="#ffff0a" d="M16 134h72v284H16z"/></g><defs><clipPath id="a"><path fill="#fff" d="M0 0h2712v542H0z"/></clipPath></defs></svg>

<svg width="285px" height="56px" viewBox="0 0 2712 542" fill="none" xmlns="http://www.w3.org/2000/svg">
<g clip-path="url(#clip0_1_19)">
<path d="M141 146.328C141 232.321 141.128 281.403 141.321 284.471C142.378 300.007 145.584 315.906 150.329 328.968C161.517 359.678 180.784 384.78 206.43 401.965C221.85 412.323 238.648 419.481 256.312 423.142C265.833 425.154 275.002 426.045 285.901 426.045C305.905 426.045 323.088 422.845 340.4 415.852C372.906 402.757 398.392 378.908 414.389 346.55C423.333 328.507 428.27 310.595 430.354 288.759C431.123 280.875 431.123 263.723 430.354 256.103C428.751 239.775 425.738 226.515 420.64 213.222C406.663 176.707 381.562 148.505 348.574 132.21C330.205 123.139 311.259 118.521 290.197 117.993C281.542 117.762 275.899 118.158 268.59 119.411C246.727 123.172 228.999 132.045 216.881 145.272L213.771 148.669V80.8513V13H177.386H141V146.328ZM294.781 193.596C302.796 194.684 309.656 196.828 316.645 200.391C324.371 204.316 330.462 208.901 336.553 215.399C347.613 227.208 354.665 242.249 357.294 259.732C358.096 265.108 358.096 279.424 357.294 284.801C356.525 289.979 355.307 295.125 353.832 299.578C344.856 326.428 323.633 345.659 297.603 350.541C294.301 351.168 292.634 351.267 285.901 351.267C279.105 351.234 277.534 351.135 274.2 350.508C260.095 347.737 247.849 341.272 237.398 331.013C227.813 321.613 220.279 308.154 216.817 294.202C212.745 277.841 213.419 260.259 218.74 245.317C220.407 240.633 224.927 231.397 227.396 227.571C238.167 211.012 254.453 198.873 271.475 194.75C278.432 193.101 287.536 192.639 294.781 193.596Z" fill="#FFFF0A"/>
<path d="M591.252 118.092C577.051 119.279 565.414 121.621 553.873 125.679C534.542 132.408 518.064 142.468 502.837 156.751C485.782 172.782 471.965 195.047 464.143 219.159C458.308 237.137 455.808 255.213 456.225 276.554C456.77 304.625 461.931 327.286 472.799 349.254C491.36 386.759 523.546 412.257 564.644 421.987C584.168 426.605 606.319 427.397 622.38 424C648.123 418.557 672.551 405.429 696.851 383.988C699.8 381.415 700.602 380.855 700.89 381.184C701.114 381.415 707.43 390.42 714.963 401.174L728.652 420.701H737.468H746.252V275.07V129.439H737.5H728.748L714.675 146.756L700.634 164.041L698.999 162.556C688.965 153.452 682.906 148.537 674.442 142.798C655.176 129.637 635.332 121.621 614.815 118.686C611.256 118.191 595.131 117.795 591.252 118.092ZM611.93 193.926C630.78 197.422 648.379 209.924 660.048 228.066C663.286 233.046 667.39 241.821 669.281 247.692C672.006 256.136 673.16 263.492 673.16 272.266C673.16 284.702 670.595 295.752 664.985 307.396C660.529 316.698 655.528 323.79 648.572 330.651C637.031 342.097 623.695 348.991 609.205 350.97C604.556 351.629 594.009 351.431 589.008 350.607C573.492 348.1 560.637 341.602 550.539 331.178C538.613 318.842 531.4 301.326 529.894 280.974C527.842 253.431 535.247 229.187 550.539 213.354C561.663 201.875 576.249 195.113 593.817 193.299C597.087 192.969 609.012 193.365 611.93 193.926Z" fill="#FFFF0A"/>
<path d="M1582.8 118.092C1568.6 119.279 1556.96 121.621 1545.42 125.679C1526.09 132.408 1509.61 142.468 1494.39 156.751C1477.33 172.782 1463.51 195.047 1455.69 219.159C1449.86 237.137 1447.36 255.213 1447.77 276.554C1448.32 304.625 1453.48 327.286 1464.35 349.254C1482.91 386.759 1515.09 412.257 1556.19 421.987C1575.72 426.605 1597.87 427.397 1613.93 424C1639.67 418.557 1664.1 405.429 1688.4 383.988C1691.35 381.415 1692.15 380.855 1692.44 381.184C1692.66 381.415 1698.98 390.42 1706.51 401.174L1720.2 420.701H1729.02H1737.8V275.07V129.439H1729.05H1720.3L1706.22 146.756L1692.18 164.041L1690.55 162.556C1680.51 153.452 1674.45 148.537 1665.99 142.798C1646.72 129.637 1626.88 121.621 1606.36 118.686C1602.81 118.191 1586.68 117.795 1582.8 118.092ZM1603.48 193.926C1622.33 197.422 1639.93 209.924 1651.6 228.066C1654.84 233.046 1658.94 241.821 1660.83 247.692C1663.55 256.136 1664.71 263.492 1664.71 272.266C1664.71 284.702 1662.14 295.752 1656.53 307.396C1652.08 316.698 1647.08 323.79 1640.12 330.651C1628.58 342.097 1615.24 348.991 1600.75 350.97C1596.11 351.629 1585.56 351.431 1580.56 350.607C1565.04 348.1 1552.19 341.602 1542.09 331.178C1530.16 318.842 1522.95 301.326 1521.44 280.974C1519.39 253.431 1526.8 229.187 1542.09 213.354C1553.21 201.875 1567.8 195.113 1585.37 193.299C1588.64 192.969 1600.56 193.365 1603.48 193.926Z" fill="#FFFF0A"/>
<path d="M2406.43 135.046C2390.79 144.447 2377.77 152.298 2377.51 152.529C2377.1 152.892 2377.03 155.926 2377.03 174.992V197.059H2363.89H2350.75V220.809V244.558H2363.86H2376.97L2377.13 304.493C2377.32 372.377 2377.42 376.138 2379.6 387.452C2381.11 395.104 2383.35 401.339 2386.52 406.451C2389.44 411.102 2396.01 416.677 2402.23 419.711C2411.27 424.165 2419.86 426.177 2431.37 426.539C2445.93 427.001 2460.96 424.626 2474.01 419.81C2477.89 418.392 2478.98 417.831 2478.98 417.304C2478.98 416.314 2474.17 372.113 2474.04 371.981C2473.98 371.915 2472.63 372.311 2471.09 372.872C2467.57 374.158 2461.44 375.907 2457.82 376.698C2453.78 377.589 2447.69 377.49 2445.19 376.566C2439.51 374.422 2436.44 370.398 2435.67 364.131C2435.38 362.02 2435.25 344.274 2435.15 302.877L2435.03 244.558L2454.68 244.492L2474.33 244.393V220.809V197.224L2454.71 197.125L2435.06 197.059L2434.99 157.51L2434.9 117.96L2406.43 135.046Z" fill="white"/>
<path d="M940.683 118.587C917.056 119.873 890.929 130.033 867.976 146.888C862.622 150.814 855.697 156.52 851.594 160.313C849.863 161.93 848.196 163.414 847.907 163.645C847.459 163.975 845.471 161.699 833.033 146.558L818.671 129.109H809.887H801.071V329.166V529.223H837.617H874.163L874.227 465.265L874.323 401.339L879.452 404.274C900.065 416.149 918.659 423.538 934.143 426.045C938.15 426.671 940.01 426.77 948.056 426.77C954.692 426.77 958.892 426.605 962.739 426.177C993.033 422.911 1019.1 411.96 1041.18 393.158C1045.8 389.233 1055.39 379.172 1059.2 374.257C1071.96 357.765 1081.67 337.446 1086.67 316.665C1090.07 302.613 1091.61 289.056 1091.61 272.596C1091.61 258.676 1090.71 248.814 1088.28 236.543C1081.87 203.953 1065.1 174.035 1041.79 153.65C1019.99 134.552 993.642 122.875 964.309 119.378C960.751 118.95 946.87 118.125 945.812 118.29C945.652 118.29 943.344 118.455 940.683 118.587ZM958.475 193.926C970.721 195.938 981.813 200.754 991.206 208.142C995.181 211.276 1001.59 218.104 1004.38 222.128C1008.55 228.165 1012.3 235.685 1014.51 242.414C1020.28 259.798 1020.51 281.964 1015.15 299.314C1009.06 318.974 996.656 334.444 979.857 343.317C970.016 348.496 960.398 351.003 948.986 351.333C939.272 351.629 932.187 350.607 923.596 347.638C911.318 343.416 900.514 335.796 892.179 325.538C885.03 316.764 879.164 304.262 876.599 292.387C875.157 285.625 874.676 280.744 874.676 271.936C874.708 256.466 877.08 245.251 882.979 232.849C888.717 220.842 897.501 210.781 908.24 203.92C916.383 198.709 926.994 194.915 937.253 193.596C941.869 192.969 953.891 193.167 958.475 193.926Z" fill="#FFFF0A"/>
<path d="M1271.52 118.587C1247.89 119.873 1221.77 130.033 1198.81 146.888C1193.46 150.814 1186.53 156.52 1182.43 160.313C1180.7 161.93 1179.03 163.414 1178.74 163.645C1178.3 163.975 1176.31 161.699 1163.87 146.558L1149.51 129.109H1140.72H1131.91V329.166V529.223H1168.45H1205L1205.06 465.265L1205.16 401.339L1210.29 404.274C1230.9 416.149 1249.5 423.538 1264.98 426.045C1268.99 426.671 1270.85 426.77 1278.89 426.77C1285.53 426.77 1289.73 426.605 1293.58 426.177C1323.87 422.911 1349.93 411.96 1372.02 393.158C1376.64 389.233 1386.22 379.172 1390.04 374.257C1402.8 357.765 1412.51 337.446 1417.51 316.665C1420.91 302.613 1422.45 289.056 1422.45 272.596C1422.45 258.676 1421.55 248.814 1419.11 236.543C1412.7 203.953 1395.94 174.035 1372.63 153.65C1350.83 134.552 1324.48 122.875 1295.15 119.378C1291.59 118.95 1277.71 118.125 1276.65 118.29C1276.49 118.29 1274.18 118.455 1271.52 118.587ZM1289.31 193.926C1301.56 195.938 1312.65 200.754 1322.04 208.142C1326.02 211.276 1332.43 218.104 1335.22 222.128C1339.39 228.165 1343.14 235.685 1345.35 242.414C1351.12 259.798 1351.34 281.964 1345.99 299.314C1339.9 318.974 1327.49 334.444 1310.69 343.317C1300.85 348.496 1291.24 351.003 1279.82 351.333C1270.11 351.629 1263.02 350.607 1254.43 347.638C1242.15 343.416 1231.35 335.796 1223.02 325.538C1215.87 316.764 1210 304.262 1207.44 292.387C1205.99 285.625 1205.51 280.744 1205.51 271.936C1205.54 256.466 1207.92 245.251 1213.82 232.849C1219.55 220.842 1228.34 210.781 1239.08 203.92C1247.22 198.709 1257.83 194.915 1268.09 193.596C1272.71 192.969 1284.73 193.167 1289.31 193.926Z" fill="#FFFF0A"/>
<path d="M1893.92 124.029C1893.31 124.095 1891.23 124.326 1889.27 124.524C1881.96 125.283 1874.4 126.998 1866.99 129.604C1854.78 133.925 1843.56 140.192 1833.2 148.472L1829.71 151.275L1829.01 150.484C1828.62 150.088 1824.23 145.074 1819.26 139.401L1810.22 129.109H1801.4H1792.62V274.905V420.701H1828.84H1865.07L1865.13 325.109L1865.23 229.55L1866.1 226.35C1869.3 214.41 1877.44 204.844 1887.96 200.655C1895.36 197.719 1904.89 197.521 1912.45 200.16C1924.54 204.415 1933.13 214.212 1936.33 227.373L1937.01 230.21L1937.1 325.439L1937.2 420.701H1973.43H2009.65V326.231C2009.65 222.986 2009.55 229.253 2011.48 223.481C2015.71 210.715 2026.06 201.347 2038.63 198.873C2042 198.214 2048.76 198.214 2052.16 198.873C2060.98 200.589 2069.28 205.998 2074.73 213.519C2076.36 215.795 2078.93 220.974 2079.83 223.777C2081.72 229.781 2081.59 221.897 2081.68 325.769L2081.78 420.701H2117.88H2153.94L2153.82 323.79C2153.69 219.621 2153.78 225.625 2152.15 215.696C2148.24 192.243 2135.61 168.626 2118.39 152.76C2103.71 139.236 2086.14 130 2067.68 126.14C2059.15 124.392 2055.53 124.029 2045.56 124.029C2035.52 123.996 2031.23 124.425 2022.79 126.14C2004.04 130 1986.28 140.687 1975.35 154.673C1974.2 156.157 1973.14 157.378 1973.01 157.411C1972.85 157.477 1971.41 155.893 1969.74 153.947C1955.73 137.256 1938.07 128.021 1913.8 124.656C1910.34 124.161 1896.42 123.732 1893.92 124.029Z" fill="#FFFF0A"/>
<path d="M2486.58 197.29C2486.51 197.455 2490.81 208.67 2496.16 222.293C2510.39 258.61 2533.83 318.644 2555.21 373.433L2574.03 421.691H2600.03H2626.03L2626.7 419.942C2627.05 419.019 2635.48 397.083 2645.45 371.223C2662.12 327.913 2672.93 299.941 2701.52 225.757C2707.36 210.616 2712.2 197.95 2712.29 197.62C2712.42 197.092 2710.92 197.059 2682.83 197.125L2653.21 197.224L2644.3 221.963C2639.4 235.553 2629.94 261.777 2623.27 280.183C2611.89 311.552 2608.68 320.986 2602.5 341.272C2601.12 345.758 2599.9 349.452 2599.77 349.452C2599.64 349.452 2599.03 347.77 2598.43 345.725C2590.38 319.238 2586.85 308.781 2573.61 271.936C2566.05 250.793 2556.97 225.493 2553.51 215.696C2550.02 205.899 2547.04 197.686 2546.84 197.455C2546.62 197.158 2540.18 197.059 2516.61 197.059C2500.17 197.059 2486.64 197.158 2486.58 197.29Z" fill="white"/>
<path d="M2259.16 351.893C2244.76 354.697 2234.6 365.45 2231.97 380.624C2231.3 384.516 2231.3 391.905 2231.97 395.797C2235.05 413.576 2248.32 424.989 2265.95 424.989C2287.14 424.989 2301.6 408.892 2300.61 386.396C2300.16 375.874 2296.86 367.528 2290.67 361.129C2286.66 357.006 2281.66 354.103 2275.8 352.52C2273.13 351.794 2271.85 351.662 2267.08 351.563C2263.29 351.497 2260.73 351.596 2259.16 351.893Z" fill="white"/>
<ellipse cx="51.5" cy="62" rx="50.5" ry="49" fill="#FFFF0A"/>
<rect x="16" y="134" width="72" height="284" fill="#FFFF0A"/>
</g>
<defs>
<clipPath id="clip0_1_19">
<rect width="2712" height="542" fill="white"/>
</clipPath>
</defs>
</svg>
